assets/sonr-icons/route.svg

<svg xmlns="http://www.w3.org/2000/svg" width="24" height="24" fill="none" viewBox="0 0 24 24"><path stroke="#000" stroke-linecap="round" stroke-linejoin="round" stroke-width="2" d="M12.0013 9V4H18.54C19.1476 4 19.7222 4.27618 20.1017 4.75061L20.5017 5.25061C21.0861 5.98105 21.0861 7.01895 20.5017 7.74939L20.1017 8.24939C19.7222 8.72382 19.1476 9 18.54 9H12.0013ZM12.0013 9V14M12.0013 9H5.4625C4.85493 9 4.28031 9.27618 3.90076 9.75061L3.50076 10.2506C2.91641 10.981 2.91641 12.019 3.50076 12.7494L3.90076 13.2494C4.28031 13.7238 4.85493 14 5.4625 14H12.0013M12.0013 14V20M12.0013 20H8.00125M12.0013 20H16.0013"/></svg>

<svg xmlns="http://www.w3.org/2000/svg" width="24" height="24" fill="none"><path stroke="#000" stroke-linecap="round" stroke-linejoin="round" stroke-width="2" d="M12.001 9V4h6.539a2 2 0 0 1 1.562.75l.4.5a2 2 0 0 1 0 2.5l-.4.5A2 2 0 0 1 18.54 9zm0 0v5m0-5H5.463a2 2 0 0 0-1.562.75l-.4.5a2 2 0 0 0 0 2.5l.4.5a2 2 0 0 0 1.562.75H12m0 0v6m0 0h-4m4 0h4"/></svg>
